coreui/free/cil-bike.svg

<svg xmlns="http://www.w3.org/2000/svg" viewBox="0 0 512 512">
  <path fill="var(--ci-primary-color, currentColor)" d="M116,468A100,100,0,1,0,16,368,100.113,100.113,0,0,0,116,468Zm0-168a68,68,0,1,1-68,68A68.077,68.077,0,0,1,116,300Z" class="ci-primary"/>
  <path fill="var(--ci-primary-color, currentColor)" d="M296,368A100,100,0,1,0,396,268,100.113,100.113,0,0,0,296,368Zm100-68a68,68,0,1,1-68,68A68.077,68.077,0,0,1,396,300Z" class="ci-primary"/>
  <circle cx="317.912" cy="94.088" r="34.088" fill="var(--ci-primary-color, currentColor)" class="ci-primary"/>
  <path fill="var(--ci-primary-color, currentColor)" d="M190.954,266.3,240,314.69V404h32V311.345a24.154,24.154,0,0,0-7.144-17.084l-51.274-50.588,66.453-66.453L338.2,236.771A24.14,24.14,0,0,0,355.369,244H384V212H358.738l-92.487-94.688-.475.464-8.4-8.4-112,112,45.254,45.254Z" class="ci-primary"/>
</svg>

<svg viewBox="0 0 512 512" xmlns="http://www.w3.org/2000/svg"><g><path d="M116 468v0c55.22 0 100-44.78 100-100 0-55.23-44.78-100-100-100 -55.23 0-100 44.77-100 100h-.001c.06 55.2 44.79 99.93 100 100Zm0-168v0c37.55 0 68 30.44 68 68 0 37.55-30.45 68-68 68 -37.56 0-68-30.45-68-68h0c.04-37.54 30.46-67.96 68-68Z"/><path d="M296 368v0c0 55.22 44.77 100 100 100 55.22 0 100-44.78 100-100 0-55.23-44.78-100-100-100v0c-55.21.06-99.94 44.79-100 100Zm100-68v0c37.55 0 68 30.44 68 68 0 37.55-30.45 68-68 68 -37.56 0-68-30.45-68-68v0c.04-37.54 30.46-67.96 68-68Z"/><path d="M317.91 60a34.08 34.08 0 1 0 0 68.17 34.08 34.08 0 1 0 0-68.18Z"/><path d="M190.95 266.3l49.04 48.39V404h32v-92.66 0c-.02-6.42-2.59-12.57-7.15-17.09l-51.28-50.59 66.45-66.453 58.16 59.55v0c4.52 4.6 10.7 7.21 17.16 7.22h28.63v-32h-25.27l-92.49-94.69 -.48.46 -8.4-8.4 -112 112 45.25 45.25Z"/></g></svg>
